X: 1
T: Midsommar Gl\"adje
C: Eric Sahlstr\"om 1982
M: 3/4
L: 1/8
K: Bb
f |: d3 BFD | B,D FB df | g3 eBG | E3 DCB, | A,C FA cd | ec Ae cA |
|1,3 BA Bc dB | F>G FD FB :|2 B3 cBA | B4 zf :|4 B3 cBA | B3 ||[K:F=e]
K: F
|: dcB | A2 FA cf | dB, DF Bd | cF Ac fa | c3 dcA | B2 EG ce |
| g3 ecB | A2 FA cf | a3 fcA | cd/c/ AF Ac | dB, DF Bd | cF Ac fa |
| c3 dcA | B2 EG ce | cg ec gc | fc af cA | F3 :|
